img/members-woocommerce-integration.svg

<svg clip-rule="evenodd" fill-rule="evenodd" stroke-linejoin="round" stroke-miterlimit="2" viewBox="0 0 998 810" xmlns="http://www.w3.org/2000/svg"><g fill="#fff" fill-rule="nonzero" transform="matrix(1.35881 0 0 1.35881 -179.112 -143.958)"><path d="m359.8 331.2h-199.1c-12.6 0-22.8 10.3-22.7 22.8v76c0 12.6 10.2 22.8 22.8 22.8h94.3l43.1 24-9.8-24h71.4c12.6 0 22.8-10.2 22.8-22.8v-76c0-12.6-10.2-22.8-22.8-22.8zm-121.7 100.1c.2 2.5-.2 4.7-1.2 6.6-1.2 2.2-3 3.4-5.3 3.6-2.6.2-5.3-1-7.9-3.7-9.3-9.5-16.7-23.7-22.1-42.6-6.5 12.8-11.3 22.4-14.4 28.8-5.9 11.3-10.9 17.1-15.1 17.4-2.7.2-5-2.1-7-6.9-5.1-13.1-10.6-38.4-16.5-75.9-.3-2.6.2-4.9 1.6-6.7 1.4-1.9 3.5-2.9 6.3-3.1 5.1-.4 8 2 8.7 7.2 3.1 20.9 6.5 38.6 10.1 53.1l21.9-41.7c2-3.8 4.5-5.8 7.5-6 4.4-.3 7.1 2.5 8.2 8.4 2.5 13.3 5.7 24.6 9.5 34.2 2.6-25.4 7-43.7 13.2-55 1.5-2.8 3.7-4.2 6.6-4.4 2.3-.2 4.4.5 6.3 2s2.9 3.4 3.1 5.7c.1 1.8-.2 3.3-1 4.8-3.9 7.2-7.1 19.3-9.7 36.1-2.5 16.3-3.4 29-2.8 38.1zm61.4-15.7c-6 10-13.8 15-23.5 15-1.7 0-3.5-.2-5.4-.6-7.1-1.5-12.4-5.3-16-11.6-3.2-5.5-4.8-12.1-4.8-19.8 0-10.3 2.6-19.7 7.8-28.2 6.1-10 13.9-15 23.5-15 1.7 0 3.5.2 5.4.6 7 1.5 12.4 5.3 16 11.6 3.2 5.4 4.8 11.9 4.8 19.7 0 10.3-2.6 19.7-7.8 28.3zm62.7 0c-6 10-13.8 15-23.5 15-1.7 0-3.5-.2-5.4-.6-7.1-1.5-12.4-5.3-16-11.6-3.2-5.5-4.8-12.1-4.8-19.8 0-10.3 2.6-19.7 7.8-28.2 6.1-10 13.9-15 23.5-15 1.7 0 3.5.2 5.4.6 7.1 1.5 12.4 5.3 16 11.6 3.2 5.4 4.8 11.9 4.8 19.7 0 10.3-2.6 19.7-7.8 28.3z"/><path d="m345.6 372.3c-3.6-.7-7.1 1.3-10.4 6.2-2.7 3.8-4.4 7.8-5.3 11.9-.5 2.3-.7 4.8-.7 7.3 0 2.9.6 6 1.8 9.1 1.5 3.9 3.5 6 5.9 6.5 2.5.5 5.2-.6 8.1-3.2 3.7-3.3 6.2-8.2 7.6-14.8.4-2.3.7-4.8.7-7.4 0-2.9-.6-6-1.8-9.1-1.5-3.9-3.5-6-5.9-6.5z"/><path d="m282.9 372.3c-3.6-.7-7.1 1.3-10.4 6.2-2.7 3.8-4.4 7.8-5.3 11.9-.5 2.3-.7 4.8-.7 7.3 0 2.9.6 6 1.8 9.1 1.5 3.9 3.5 6 5.9 6.5 2.5.5 5.2-.6 8.1-3.2 3.7-3.3 6.2-8.2 7.6-14.8.5-2.3.7-4.8.7-7.4 0-2.9-.6-6-1.8-9.1-1.5-3.9-3.5-6-5.9-6.5z"/><path d="m407.9 366.7c-6.7 6.6-10 15-10 25.2 0 10.9 3.3 19.8 9.9 26.5s15.2 10.1 25.9 10.1c3.1 0 6.6-.5 10.4-1.6v-16.2c-3.5 1-6.5 1.5-9.1 1.5-5.3 0-9.5-1.8-12.7-5.3-3.2-3.6-4.8-8.4-4.8-14.5 0-5.7 1.6-10.4 4.7-14 3.2-3.7 7.1-5.5 11.9-5.5 3.1 0 6.4.5 10 1.5v-16.2c-3.3-.9-7-1.3-10.9-1.3-10.2-.1-18.6 3.2-25.3 9.8z"/><path d="m557.1 358.7-3.6 15.3c-.9 3.9-1.8 7.9-2.6 12l-2 10.6c-1.9-10.6-4.5-23.2-7.8-37.9h-23.2l-8.7 68.1h17.4l4.7-46.9 11.9 46.9h12.4l11.4-46.8 4.9 46.8h18.2l-9.2-68.1z"/><path d="m477.3 356.8c-9.2 0-16.4 3.1-21.6 9.2s-7.7 14.7-7.7 25.7c0 11.9 2.6 21 7.7 27.3s12.6 9.5 22.4 9.5c9.5 0 16.8-3.2 21.9-9.5s7.7-15.2 7.7-26.6-2.6-20.2-7.8-26.4c-5.3-6.1-12.8-9.2-22.6-9.2zm7.9 52c-1.8 2.8-4.5 4.2-7.9 4.2-3.2 0-5.6-1.4-7.3-4.2s-2.5-8.4-2.5-16.9c0-13.1 3.3-19.6 10-19.6 7 0 10.6 6.6 10.6 19.9-.1 8.2-1.1 13.8-2.9 16.6z"/><path d="m841.1 412.3v-12.5h16.3v-14.1h-16.3v-12.5h18.9v-14.5h-37.2v68.1h37.3v-14.5z"/><path d="m767.7 389.1c1.9-3.1 2.9-6.3 2.9-9.6 0-6.4-2.5-11.5-7.5-15.2s-11.9-5.6-20.5-5.6h-21.4v68.1h18.4v-31h.3l14.9 31h19.4l-14.7-30.7c3.5-1.6 6.3-3.9 8.2-7zm-28.2-1.1v-16.2c4.4.1 7.5.8 9.4 2.2s2.8 3.6 2.8 6.8c0 4.7-4.1 7.1-12.2 7.2z"/><path d="m781.4 366.7c-6.7 6.6-10 15-10 25.2 0 10.9 3.3 19.8 9.9 26.5s15.2 10.1 25.9 10.1c3.1 0 6.6-.5 10.4-1.6v-16.2c-3.5 1-6.5 1.5-9.1 1.5-5.3 0-9.5-1.8-12.7-5.3-3.2-3.6-4.8-8.4-4.8-14.5 0-5.7 1.6-10.4 4.7-14 3.2-3.7 7.1-5.5 11.9-5.5 3.1 0 6.4.5 10 1.5v-16.2c-3.3-.9-7-1.3-10.9-1.3-10.1-.1-18.6 3.2-25.3 9.8z"/><path d="m697 399.9h16.3v-14.1h-16.3v-12.5h18.8v-14.5h-37.2v68.1h37.3v-14.5h-18.9z"/><path d="m640.4 358.7-3.6 15.3c-.9 3.9-1.8 7.9-2.6 12l-2 10.6c-1.9-10.6-4.5-23.2-7.8-37.9h-23.2l-8.7 68.1h17.4l4.7-46.9 11.9 46.9h12.4l11.3-46.8 4.9 46.8h18.2l-9.2-68.1z"/></g></svg>

<?xml version="1.0" encoding="UTF-8" standalone="no"?>
<!DOCTYPE svg PUBLIC "-//W3C//DTD SVG 1.1//EN" "http://www.w3.org/Graphics/SVG/1.1/DTD/svg11.dtd">
<svg width="100%" height="100%" viewBox="0 0 998 810" version="1.1" xmlns="http://www.w3.org/2000/svg" xmlns:xlink="http://www.w3.org/1999/xlink" xml:space="preserve" xmlns:serif="http://www.serif.com/" style="fill-rule:evenodd;clip-rule:evenodd;stroke-linejoin:round;stroke-miterlimit:2;">
    <g transform="matrix(1.35881,0,0,1.35881,-179.112,-143.958)">
        <path d="M359.8,331.2L160.7,331.2C148.1,331.2 137.9,341.5 138,354L138,430C138,442.6 148.2,452.8 160.8,452.8L255.1,452.8L298.2,476.8L288.4,452.8L359.8,452.8C372.4,452.8 382.6,442.6 382.6,430L382.6,354C382.6,341.4 372.4,331.2 359.8,331.2ZM238.1,431.3C238.3,433.8 237.9,436 236.9,437.9C235.7,440.1 233.9,441.3 231.6,441.5C229,441.7 226.3,440.5 223.7,437.8C214.4,428.3 207,414.1 201.6,395.2C195.1,408 190.3,417.6 187.2,424C181.3,435.3 176.3,441.1 172.1,441.4C169.4,441.6 167.1,439.3 165.1,434.5C160,421.4 154.5,396.1 148.6,358.6C148.3,356 148.8,353.7 150.2,351.9C151.6,350 153.7,349 156.5,348.8C161.6,348.4 164.5,350.8 165.2,356C168.3,376.9 171.7,394.6 175.3,409.1L197.2,367.4C199.2,363.6 201.7,361.6 204.7,361.4C209.1,361.1 211.8,363.9 212.9,369.8C215.4,383.1 218.6,394.4 222.4,404C225,378.6 229.4,360.3 235.6,349C237.1,346.2 239.3,344.8 242.2,344.6C244.5,344.4 246.6,345.1 248.5,346.6C250.4,348.1 251.4,350 251.6,352.3C251.7,354.1 251.4,355.6 250.6,357.1C246.7,364.3 243.5,376.4 240.9,393.2C238.4,409.5 237.5,422.2 238.1,431.3ZM299.5,415.6C293.5,425.6 285.7,430.6 276,430.6C274.3,430.6 272.5,430.4 270.6,430C263.5,428.5 258.2,424.7 254.6,418.4C251.4,412.9 249.8,406.3 249.8,398.6C249.8,388.3 252.4,378.9 257.6,370.4C263.7,360.4 271.5,355.4 281.1,355.4C282.8,355.4 284.6,355.6 286.5,356C293.5,357.5 298.9,361.3 302.5,367.6C305.7,373 307.3,379.5 307.3,387.3C307.3,397.6 304.7,407 299.5,415.6ZM362.2,415.6C356.2,425.6 348.4,430.6 338.7,430.6C337,430.6 335.2,430.4 333.3,430C326.2,428.5 320.9,424.7 317.3,418.4C314.1,412.9 312.5,406.3 312.5,398.6C312.5,388.3 315.1,378.9 320.3,370.4C326.4,360.4 334.2,355.4 343.8,355.4C345.5,355.4 347.3,355.6 349.2,356C356.3,357.5 361.6,361.3 365.2,367.6C368.4,373 370,379.5 370,387.3C370,397.6 367.4,407 362.2,415.6Z" style="fill:white;fill-rule:nonzero;"/>
        <path d="M345.6,372.3C342,371.6 338.5,373.6 335.2,378.5C332.5,382.3 330.8,386.3 329.9,390.4C329.4,392.7 329.2,395.2 329.2,397.7C329.2,400.6 329.8,403.7 331,406.8C332.5,410.7 334.5,412.8 336.9,413.3C339.4,413.8 342.1,412.7 345,410.1C348.7,406.8 351.2,401.9 352.6,395.3C353,393 353.3,390.5 353.3,387.9C353.3,385 352.7,381.9 351.5,378.8C350,374.9 348,372.8 345.6,372.3Z" style="fill:white;fill-rule:nonzero;"/>
        <path d="M282.9,372.3C279.3,371.6 275.8,373.6 272.5,378.5C269.8,382.3 268.1,386.3 267.2,390.4C266.7,392.7 266.5,395.2 266.5,397.7C266.5,400.6 267.1,403.7 268.3,406.8C269.8,410.7 271.8,412.8 274.2,413.3C276.7,413.8 279.4,412.7 282.3,410.1C286,406.8 288.5,401.9 289.9,395.3C290.4,393 290.6,390.5 290.6,387.9C290.6,385 290,381.9 288.8,378.8C287.3,374.9 285.3,372.8 282.9,372.3Z" style="fill:white;fill-rule:nonzero;"/>
        <path d="M407.9,366.7C401.2,373.3 397.9,381.7 397.9,391.9C397.9,402.8 401.2,411.7 407.8,418.4C414.4,425.1 423,428.5 433.7,428.5C436.8,428.5 440.3,428 444.1,426.9L444.1,410.7C440.6,411.7 437.6,412.2 435,412.2C429.7,412.2 425.5,410.4 422.3,406.9C419.1,403.3 417.5,398.5 417.5,392.4C417.5,386.7 419.1,382 422.2,378.4C425.4,374.7 429.3,372.9 434.1,372.9C437.2,372.9 440.5,373.4 444.1,374.4L444.1,358.2C440.8,357.3 437.1,356.9 433.2,356.9C423,356.8 414.6,360.1 407.9,366.7Z" style="fill:white;fill-rule:nonzero;"/>
        <path d="M557.1,358.7L553.5,374C552.6,377.9 551.7,381.9 550.9,386L548.9,396.6C547,386 544.4,373.4 541.1,358.7L517.9,358.7L509.2,426.8L526.6,426.8L531.3,379.9L543.2,426.8L555.6,426.8L567,380L571.9,426.8L590.1,426.8L580.9,358.7L557.1,358.7Z" style="fill:white;fill-rule:nonzero;"/>
        <path d="M477.3,356.8C468.1,356.8 460.9,359.9 455.7,366C450.5,372.1 448,380.7 448,391.7C448,403.6 450.6,412.7 455.7,419C460.8,425.3 468.3,428.5 478.1,428.5C487.6,428.5 494.9,425.3 500,419C505.1,412.7 507.7,403.8 507.7,392.4C507.7,381 505.1,372.2 499.9,366C494.6,359.9 487.1,356.8 477.3,356.8ZM485.2,408.8C483.4,411.6 480.7,413 477.3,413C474.1,413 471.7,411.6 470,408.8C468.3,406 467.5,400.4 467.5,391.9C467.5,378.8 470.8,372.3 477.5,372.3C484.5,372.3 488.1,378.9 488.1,392.2C488,400.4 487,406 485.2,408.8Z" style="fill:white;fill-rule:nonzero;"/>
        <path d="M841.1,412.3L841.1,399.8L857.4,399.8L857.4,385.7L841.1,385.7L841.1,373.2L860,373.2L860,358.7L822.8,358.7L822.8,426.8L860.1,426.8L860.1,412.3L841.1,412.3Z" style="fill:white;fill-rule:nonzero;"/>
        <path d="M767.7,389.1C769.6,386 770.6,382.8 770.6,379.5C770.6,373.1 768.1,368 763.1,364.3C758.1,360.6 751.2,358.7 742.6,358.7L721.2,358.7L721.2,426.8L739.6,426.8L739.6,395.8L739.9,395.8L754.8,426.8L774.2,426.8L759.5,396.1C763,394.5 765.8,392.2 767.7,389.1ZM739.5,388L739.5,371.8C743.9,371.9 747,372.6 748.9,374C750.8,375.4 751.7,377.6 751.7,380.8C751.7,385.5 747.6,387.9 739.5,388Z" style="fill:white;fill-rule:nonzero;"/>
        <path d="M781.4,366.7C774.7,373.3 771.4,381.7 771.4,391.9C771.4,402.8 774.7,411.7 781.3,418.4C787.9,425.1 796.5,428.5 807.2,428.5C810.3,428.5 813.8,428 817.6,426.9L817.6,410.7C814.1,411.7 811.1,412.2 808.5,412.2C803.2,412.2 799,410.4 795.8,406.9C792.6,403.3 791,398.5 791,392.4C791,386.7 792.6,382 795.7,378.4C798.9,374.7 802.8,372.9 807.6,372.9C810.7,372.9 814,373.4 817.6,374.4L817.6,358.2C814.3,357.3 810.6,356.9 806.7,356.9C796.6,356.8 788.1,360.1 781.4,366.7Z" style="fill:white;fill-rule:nonzero;"/>
        <path d="M697,399.9L713.3,399.9L713.3,385.8L697,385.8L697,373.3L715.8,373.3L715.8,358.8L678.6,358.8L678.6,426.9L715.9,426.9L715.9,412.4L697,412.4L697,399.9Z" style="fill:white;fill-rule:nonzero;"/>
        <path d="M640.4,358.7L636.8,374C635.9,377.9 635,381.9 634.2,386L632.2,396.6C630.3,386 627.7,373.4 624.4,358.7L601.2,358.7L592.5,426.8L609.9,426.8L614.6,379.9L626.5,426.8L638.9,426.8L650.2,380L655.1,426.8L673.3,426.8L664.1,358.7L640.4,358.7Z" style="fill:white;fill-rule:nonzero;"/>
    </g>
</svg>
